!!!COM:	Bach, Johann Sebastian
!!!CDT:	1685/02/21/-1750/07/28/
!!!OTL@@DE:	Von Gott will ich nicht lassen
!!!SCT:	BWV 73/5
!!!PC#:	191
!!!AGN:	chorale
**kern	**kern	**kern	**kern
*ICvox	*ICvox	*ICvox	*ICvox
*Ibass	*Itenor	*Ialto	*Isoprn
*I"Bass	*I"Tenor	*I"Alto	*I"Soprano
*>[A,A,B]	*>[A,A,B]	*>[A,A,B]	*>[A,A,B]
*>norep[A,B]	*>norep[A,B]	*>norep[A,B]	*>norep[A,B]
*>A	*>A	*>A	*>A
*	*oclefC4	*oclefC3	*oclefC1
*clefF4	*clefGv2	*clefG2	*clefG2
*k[]	*k[]	*k[]	*k[]
*a:	*a:	*a:	*a:
*M4/4	*M4/4	*M4/4	*M4/4
*met(c)	*met(c)	*met(c)	*met(c)
*MM100	*MM100	*MM100	*MM100
4AA	4A	4c	4e
=1	=1	=1	=1
4A	4c	4e	4a
4G#	4B	4e	4b
4A	4A	4e	4cc
4F#	4A	4d	4dd
=2	=2	=2	=2
4G	4G	8dL	2b
.	.	8eJ	.
4D#	4F#	4f#	.
4E;	4B;	4e;	4g;
4C	4c	4e	4g
=3	=3	=3	=3
4FnX	4A	4c	4a
4DnX	4F	4d	4a
4GG#	4E	8dL	4b
.	.	8fnXJ	.
4GG#	4E	8eL	4b
.	.	8dJ	.
=4	=4	=4	=4
2.AA;	2.A;	2.c;	2.e;
=:|!	=:|!	=:|!	=:|!
*>B	*>B	*>B	*>B
4A	4c	4a	4ee
=5	=5	=5	=5
4F	4d	4a	4dd
4D	4f	4a	4cc
4G	4e	4g	4cc
4GG	4d	4g	4b
=6	=6	=6	=6
2.C;	2.e;	2.g;	2.cc;
4G	4d	4g	4b
=7	=7	=7	=7
4E	4.c	4g	4cc
4D	.	4f	4dd
.	[8B	.	.
4C	8BL]	4g	4ee
.	8GJ	.	.
4AA	8cL	8aL	4ee
.	8BJ	8gJ	.
=8	=8	=8	=8
2D	8AL	8f#L	2dd
.	8c	8eJ	.
.	8B	4f#	.
.	8AJ	.	.
4GG;	4G;	4d;	4b;
4G	4d	4g	4b
=9	=9	=9	=9
4E	4c	4g	4cc
4C	4G	4e	4b
4F	8AL	4c	4a
.	8BJ	.	.
4E	4c	[4fnX	4a
=10	=10	=10	=10
4D	4d	8fL]	4b
.	.	8eJ	.
4D#	4c	4f#	4a
4E;	4B;	4e;	4g;
4BB	4G	4d	4f
=11	=11	=11	=11
4C	4G	4c	4e
4F	8AL	4d	4a
.	8BJ	.	.
4E	8cL	4e	4a
.	16BL	.	.
.	16AJJ	.	.
4EE	8BL	4e	4g#
.	8dJ	.	.
=12	=12	=12	=12
2.AA;	2.c#;	2.e;	2.a;
==	==	==	==
*-	*-	*-	*-
!!!YOR1: 371 vierstimmige Choralges&auml;nge von Johann Sebastian Bach, 
!!!YOR2: 4th ed. by Alfred D&ouml;rffel (Leipzig: Breitkopf und H&auml;rtel, 
!!!YOR2: c.1875). 178 pp. Plate "V.A.10".  reprint: J.S. Bach, 371 Four-Part 
!!!YOR4: Chorales (New York: Associated Music Publishers, Inc., c.1940).
!!!SMS: B&H, 4th ed, Alfred D&ouml;rffel, c.1875, plate V.A.10
!!!EED:  Craig Stuart Sapp
!!!EEV:  2009/05/22
